X:1
T:Be light and glad, in God rejoice
T:Joseph Key
T:Text: John Hopkins, on Ps. 81
T:This edition by Edmund Gooch released into the public domain, April 2012.
T:Be light and glad, in God rejoice
T:PSALM LXXXI
C:Joseph Key
Z:Text: John Hopkins, on Ps. 81
%%score [ 1 2 3 4 ]
L:1/8
M:2/2
K:F
V:1 treble nm="Soprano" snm="S."
V:2 treble nm="Alto" snm="A."
V:3 treble-8 transpose=-12 nm="Tenor" snm="T."
V:4 bass nm="Bass" snm="B."
V:1
 F4 A2 c2 | f>ef>g f2 c>e | d2 cB A2 TG2 | F6 A2 | dcde f2 c>e | d2 c2 B2 A2 | TA4 G2 c2 | %7
w: |||||||
w: |||||||
w: |||||||
 cdcB AcBA | B4 z2 B2 | BcBA GdcB | A4 z2 A2 | dcBA BAGF | TE4 FdcB | TA2 GF TG4 | [FA]8 || z8 | %16
w: |||||||||
w: |||||||||
w: |||||||||
 z8 | z8 | z8 | z8 | z8 | z8 |"^Sy." [EG][FA][EG][FA] [G=B]2 [EG]2 |"^Treble" (c3 B) A2 G2 | %24
w: |||||||As _ it is|
w: |||||||Be _ joy- ful|
w: |||||||Strike _ up with|
 (A>BA>G F2) C2 | (F2 G2) (A2 =B2) | c6 A2 | (dcde f2) d2 | c4 T=B4 | c4 z2"^Sy." [Ac]2 | %30
w: us- * * * * ed|to _ be _|done At|a- * * * * ny|so- lemn|feast. *|
w: and _ _ _ _ lift|up _ your _|voice To|Ja- * * * * cob’s|God al-|way. *|
w: harp _ _ _ _ and|lute _ so _|sweet, On|ev- * * * * ’ry|plea- sant|string. *|
 [Bd][df][ce][eg] [df][fa][eg][df] | [ce][=Bd][ce][df] [GBd]4 | [Ece]8 ||"^CHORUS" F4 F2 F2 | %34
w: |||Blow as it|
w: |||Be light and|
w: |||Pre- pare your|
 (B3 c d2) c2 | F4 TF4 | E6 E2 | (ABAG F2) F2 | A4 G4 | G8 |: z8 | (c3 B) A2 G2 | A6 G2 | %43
w: were _ _ in|the new|moon, With|trum- * * * * pets|of the|best;||As _ it is|us- ed|
w: glad, _ _ in|God re-|joice, Who|is _ _ _ _ our|strength and|stay:||Be _ joy- ful|and lift|
w: in- * * stru-|ments most|meet Some|joy- * * * * ful|psalm to|sing;||Strike _ up with|harp and|
 (FGAB c2) F2 | B6 A2 | F4 F4 | E6 G2 | (cdcB A2) G2 | (ABAB A2) (c>B) | A6 A2 | (BcBc d2) F2 | %51
w: to _ _ _ _ be|done, is|to be|done At|a- * * * * ny|so- * * * * lemn _|feast, at|a- * * * * ny|
w: up _ _ _ _ your|voice, lift|up your|voice To|Ja- * * * * cob’s|God _ _ _ _ al- *|way, to|Ja- * * * * cob’s|
w: lute _ _ _ _ so|sweet, and|lute so|sweet, On|ev- * * * * ’ry|plea- * * * * sant _|string, on|ev- * * * * ’ry|
 F4 TE4 | F8 :| %53
w: so- lemn|feast.|
w: God al-|way.|
w: plea- sant|string.|
V:2
 F4 F2 G2 | A>GA>B A2 A2 | B2 AG F2 c2 | cdcB A2 c2 | BABc d2 A2 | B2 c2 d2 F2 | TF4 E2 G2 | %7
w: |||||||
w: |||||||
w: |||||||
 ABAG FAGF | G4 z2 G2 | GAGF EFGE | F4 z2 F2 | BABc dcBA | TG4 ABAG | F4 TE4 | F8 || z8 | z8 | z8 | %18
w: |||||||||||
w: |||||||||||
w: |||||||||||
 z8 | z8 | z8 | z8 | z8 | z8 | z8 | z8 | z8 | z8 | z8 | z8 | z8 | z8 | z8 || C4 C2 C2 | %34
w: |||||||||||||||Blow as it|
w: |||||||||||||||Be light and|
w: |||||||||||||||Pre- pare your|
 (D3 E F2) F2 | D4 C4 | C6 C2 | C6 C2 | F4 D4 | E8 |: z8 | z8 | z8 | (C3 B,) A,2 C2 | F6 E2 | %45
w: were _ _ in|the new|moon, With|trum- pets|of the|best;||||As _ it is|us- ed|
w: glad, _ _ in|God re-|joice, Who|is our|strength and|stay:||||Be _ joy- ful|and lift|
w: in- * * stru-|ments most|meet Some|joy- ful|psalm to|sing;||||Strike _ up with|harp and|
 D4 C4 | C6 z2 | z8 | z8 | z4 z2 C2 | (FGFE D2) C2 | D4 (C3 B,) | A,8 :| %53
w: to be|done|||At|a- * * * * ny|so- lemn *|feast.|
w: up your|voice|||To|Ja- * * * * cob’s|God al- *|way.|
w: lute so|sweet,|||On|ev- * * * * ’ry|plea- sant _|string.|
V:3
 z8 | z8 | z8 | z8 | z8 | z8 | z8 | z8 | z8 | z8 | z8 | z8 | z8 | z8 | z8 ||"^Tenor" F4 A2 c2 | %16
w: |||||||||||||||Blow as it|
w: |||||||||||||||Be light and|
w: |||||||||||||||Pre- pare your|
 (f2 ed c2) d2 | (c2 B2) (A2 G2) | F6 A2 | (d3 e f2) (c>e) | (d2 c2) (B2 A2) | (TA4 G4) | z8 | z8 | %24
w: were _ _ _ in|the _ new _|moon, With|trum- * * pets _|of _ the _|best; _|||
w: glad, _ _ _ in|God _ re- *|joice, Who|is _ _ our _|strength _ and _|stay: _|||
w: in- * * * stru-|ments _ most _|meet Some|joy- * * ful _|psalm _ to _|sing; _|||
 z8 | z8 | z8 | z8 | z8 | z8 | z8 | z8 | z8 || A4 A2 A2 | (d3 c B2) A2 | B4 TA4 | G6 G2 | %37
w: |||||||||Blow as it|were _ _ in|the new|moon With|
w: |||||||||Be light and|glad, _ _ in|God re-|joice, Who|
w: |||||||||Pre- pare your|in- * * stru-|ments most|meet Some|
 (AGAB c2) A2 | d4 (c2 T=B2) | c8 |: (c3 B) A2 G2 | (A>BA>G F2) G2 | c6 (c>B) | A6 A2 | %44
w: trum- * * * * pets|of the _|best;|As _ it is|us- * * * * ed|to be _|done, as|
w: is _ _ _ _ our|strength and _|stay:|Be _ joy- ful|and _ _ _ _ lift|up your _|voice, be|
w: joy- * * * * ful|psalm to _|sing;|Strike _ up with|harp _ _ _ _ and|lute so _|sweet, strike|
 d2 d2 d2 c2 | B4 TA4 | G6 z2 | z4 z2 G2 | (cdcB A2) G2 | F6 A2 | (dedc B2) A2 | B4 TG4 | F8 :| %53
w: it is us- ed|to be|done|At|a- * * * * ny|so- lemn,|a- * * * * ny|so- lemn|feast.|
w: joy- ful and lift|up your|voice|To|Ja- * * * * cob’s|God, to|Ja- * * * * cob’s|God al-|way.|
w: up with harp and|lute so|sweet,|On|ev- * * * * ’ry|plea- sant,|ev- * * * * ’ry|plea- sant|string.|
V:4
 F,4 F,2 C,2 | F,,6 F,,2 | B,,2 C,2 F,2 C,B,, | A,,B,,A,,G,, F,,2 F,,2 | B,,6 F,2 | %5
w: |||||
w: |||||
w: |||||
 B,,2 A,,2 G,,2 F,,2 | C,6 C,2 | F,4 F,,4 | G,,4 z2 G,,2 | G,,4 C,4 | F,,4 z2 F,2 | B,,4 G,,4 | %12
w: |||||||
w: |||||||
w: |||||||
 C,4 F,,G,,A,,B,, | C,4 C,4 | F,,8 || F,4 F,2 E,2 | F,2 C,2 F,2 B,2 | A,2 G,2 F,2 C,B,, | %18
w: ||||||
w: ||||||
w: ||||||
 A,,B,,A,,G,, F,,2 F,,2 | B,,A,,B,,C, D,E, F,2 | B,,2 A,,2 G,,2 F,,2 | C,8 | C,4 G,,2 C,2 | %23
w: |||||
w: |||||
w: |||||
 F,,4 F,,2 C,2 | F,2 C,2 F,,2 A,,2 | D,2 E,2 F,E, D,2 | C,6 F,2 | D,3 C, F,2 G,2 | %28
w: |||||
w: |||||
w: |||||
 A,2 F,2 G,2 G,,2 | C,4 z2 F,2 | B,,2 C,2 D,2 E,F, | C,4 G,2 G,,2 | C,8 || F,4 F,2 F,2 | %34
w: |||||Blow as it|
w: |||||Be light and|
w: |||||Pre- pare your|
 B,,6 F,,2 | B,,4 F,4 | C,6 C,2 | (F,E,F,G, A,2) F,2 | D,4 [G,,G,]4 | C,8 |: z8 | z8 | %42
w: were in|the new|moon, With|trum- * * * * pets|of the|best;|||
w: glad, in|God re-|joice, Who|is _ _ _ _ our|strength and|stay:|||
w: in- stru-|ments most|meet Some|joy- * * * * ful|psalm to|sing;|||
 (C,3 B,,) A,,2 C,2 | F,6 F,2 | B,,6 C,2 | D,4 F,4 | %46
w: As _ it is|us- ed,|us- ed|to be|
w: Be _ joy- ful|and lift|up, lift|up your|
w: Strike _ up with|harp and|lute, and|lute so|
"^Notes:The alto part is printed in the source in the treble clef, an octave above sounding pitch.The first verse only of the text is given in the source: three subsequent verses have been underlaid editorially.The time signature in the source is retorted time.The tenor C on beat 2 of bar 39 is printed as a small quaver grace note in the source (slurred to the following B§,which is printed as a minim), and has been editorially written out in full." C,6 z2 | %47
w: done|
w: voice|
w: sweet,|
 z8 | z4 z2 C,2 | (F,G,F,E, D,2) F,2 | B,,6 F,,2 | B,,4 C,4 | F,,8 :| %53
w: |At|a- * * * * ny,|a- ny|so- lemn|feast.|
w: |To|Ja- * * * * cob’s,|Ja- cob’s|God al-|way.|
w: |On|ev- * * * * ’ry,|ev- ’ry|plea- sant|string.|

